X: 38884
T: Sunnyset, The
R: hornpipe
M: 4/4
K: Gmajor
|:"G"B3A GBdB|"D"A2d2 "Em"E3F|"C9"GGdG "D"FddF|"Em"EccE "D"dcBA|
"G"BAGB d2cB|"D"ABcd "Em"E3F|"C"GGdG "D"FdcA|1 Az"G"G2G2GA:|2 Az"G"G2G2GF||
|:"Em"E2dE"D"F2dF|"C9"G2dG edcB|"D"ABBA ddAe|"D"fedc BAGF|
"Em"E2dE "D"F2dF|"C9"G2dG edcB|"D"A3B cBAF|1 Az"G"G2G2GF:|2 Az"G"G2G2GA||

